X: 556
T: Değil Câm-ı Mey Açıldı
C: Yahyâ Nazîm Çelebi
O: Turkey
F: http://compmusic.upf.edu/node/140
N: beyati--beste--nimdevir--degil_cam-i_mey--yahya_nazim_celebi
N: makam= beyati
N: form= beste
N: usul= nimdevir = 18/4
M: 18/4
L: 1/16
K: C _2/4B   
Q: 1/4=69
%%MIDI tuningsystem comma53
e3d dc{d}cB c6z2 d3e f2{g}fe  | e3d d2{f}ed d3c gfed e2d6  | 
w:  Yâr  *  de *  *  *  *  ğil  ğil   |  *  *  câ *  *  *  *  *  *  *  *  *  mı   | 
d4 z4 d3c d2{g}f2 e2{f}ed dc{d}cB  | \
w:  *  mı   | 
c4 z2g2 g2fg a2gf f2ef g2fe  | 
w:  *  mey  a  | 
e3d gfed d3c ed{f}ed c2d6  | d4 B4 c2{e}dc B2{d}cB A2{c}BA AGG^F  | 
w:  *  *  çıl *  *  *  *  *  *  *  *  *  *  dı   |  *  a man    | 
G4 z2G2 f8 f2g2 f2e2  | z2de d2e2 d4 g4 z2a2 g2fg  | \
w:  Yâr  gü li   |  ba *  *  *  *  *  ğı   | 
f2g2 f2e2 z2de d2{g}f2 e2d2 c2d2  | 
w:  *  *  *  *  *  *  ğı    | 
e3d dc{d}cB c6z2 d3e f2{g}fe  | e3d d2{f}ed d3c gfed c2d6  | 
w:  yâr  *  ta *  *  *  *  rab  rab   |  *  *  şim *  *  *  *  *  *  *  *  *  di   | 
d4 z4 d3c d2e2 d2e2 d2c2  | z2e2 d2d2 d3c B2cd c2{e}d2 c2B2  | 
w:  *  ey *  vay  *  vay    |  Yâr  *  gü li   | 
z2Bc B2c2 B4 A4 A2{B}AG dcBc  | d6z2 z2d2 d2f2 e2d2 c2d2  | 
w:  ba *  *  *  *  *  *  *  *  *  ğı   |  *  ğı    | 
e3d c2z2 d2e2 c2d2 {e}d2e2 c2f2  | \
w:  Yâr  *  ta rap   | 
e3d d2{f}ed d3c e2ed d2c2 B2A2  | 
w:  *  *  şim *  *  *  *  *  *  *  *  di   | 
A6z2 c4 d4 d4 z4  | e3d dc{d}cB c6z2 d3e f2{g}fe  | \
w:  *  hey  câ nım  |  Yâr  *  de *  *  *  *  ğil  ğil   | 
e3d d2{f}ed d3c gfed e2d6  | 
w:  *  *  câ *  *  *  *  *  *  *  *  *  mı   | 
d4 z4 d3c d2{g}f2 e2{f}ed dc{d}cB  | \
w:  *  mı   | 
c4 z2g2 g2fg a2gf f2ef g2fe  | 
w:  *  mey  a  | 
e3d gfed d3c ed{f}ed c2d6  | d4 B4 c2{e}dc B2{d}cB A2{c}BA AGG^F  | 
w:  *  *  çıl *  *  *  *  *  *  *  *  *  *  dı   |  *  a man    | 
G4 z2G2 f8 f2g2 f2e2  | z2de d2e2 d4 g4 z2a2 g2fg  | \
w:  Yâr  gü li   |  ba *  *  *  *  *  ğı   | 
f2g2 f2e2 z2de d2{g}f2 e2d2 c2d2  | 
w:  *  *  *  *  *  *  ğı    | 
e3d dc{d}cB c6z2 d3e f2{g}fe  | e3d d2{f}ed d3c gfed c2d6  | 
w:  yâr  *  ta *  *  *  *  rab  rab   |  *  *  şim *  *  *  *  *  *  *  *  *  di   | 
d4 z4 d3c d2e2 d2e2 d2c2  | z2e2 d2d2 d3c B2cd c2{e}d2 c2B2  | 
w:  *  ey *  vay  *  vay    |  Yâr  *  gü li   | 
z2Bc B2c2 B4 A4 A2{B}AG dcBc  | d6z2 z2d2 d2f2 e2d2 c2d2  | 
w:  ba *  *  *  *  *  *  *  *  *  ğı   |  *  ğı    | 
e3d c2z2 d2e2 c2d2 {e}d2e2 c2f2  | \
w:  Yâr  *  ta rap   | 
e3d d2{f}ed d3c e2ed d2c2 B2A2  | 
w:  *  *  şim *  *  *  *  *  *  *  *  di   | 
A6z2 g4 a4 a4 z4  | A4 a4 a6g2 f3e ed{e}dc  | \
w:  *  hey  câ nım   |  Yâr  se ni   | 
d4 G2A2 A3G e3d d2c4B2  | 
w:  *  her  *  *  *  *  *  câ  | 
B3A G4 z2AB c2d2 B3A G2A2  | A4 z2a2 a2ga _b2ag g2fg a2gf  | 
w:  *  *  *  i  |  *  yi  bir   | 
f3e e3d d3c gfed c2d6  | d4 B4 c2{e}dc B2{d}cB A2{c}BA AGG^3/4F  | 
w:  *  *  â *  *  *  *  *  *  *  fet   |  *  a *  man    | 
G4 z2G2 g8 g2a2 g2f2  | z2ef e2fg f2{a}g2 f2e2 z2de d2ef  | 
w:  Yâr  ko par   |  der *  *  *  *  *  *  *  *  *  le   | 
e2{g}f2 e2d2 z2de d2{g}f2 e2d2 c2d2  | \
w:  *  *  *  *  *  le   | 
e3d dc{d}cB c6z2 d3e f2{g}fe  | 
w:  di  *  *  *  *  *  *  tef  tef  | 
e3d d2{f}ed d3c ed{f}ed c2d6  | d4 z4 c'3b c'2d'2 {e'}d'2c'2 b2a2  | 
w:  *  *  ri *  *  *  *  *  *  *  *  *  *  ken  |  *  ey *  vah  *  *  vah    | 
a4 z2g2 _b3a g2a2 g2a2 g2f2  | z2ef e2fg f2g2 f2e2 z2de d2e2  | 
w:  Yâr  ko par   |  der *  *  *  *  *  *  *  *  le  | 
d2e2 d2c2 z2de d2{g}f2 e2{f}ed dc{d}cB  | \
w:  *  *  *  *  ler  | 
c4 z2a2 a2{b}ag g2{a}gf f2{g}fe e2{f}ed  | 
w:  *  di  tef  | 
d4 G2A2 A3G e2{f}ed d2c2 B2A2  | A6z2 c4 d4 d4 z4  | \
w:  *  ri *  *  *  *  *  *  *  ken   |  *  hey  câ nım  | 
e3d dc{d}cB c6z2 d3e f2{g}fe  | 
w:  Yâr  *  de *  *  *  *  ğil  ğil   | 
e3d d2{f}ed d3c gfed e2d6  | d4 z4 d3c d2{g}f2 e2{f}ed dc{d}cB  | 
w:  *  *  câ *  *  *  *  *  *  *  *  *  mı   |  *  mı   | 
c4 z2g2 g2fg a2gf f2ef g2fe  | e3d gfed d3c ed{f}ed c2d6  | 
w:  *  mey  a  |  *  *  çıl *  *  *  *  *  *  *  *  *  *  dı   | 
d4 B4 c2{e}dc B2{d}cB A2{c}BA AGG^F  | \
w:  *  a man    | 
G4 z2G2 f8 f2g2 f2e2  | 
w:  Yâr  gü li   | 
z2de d2e2 d4 g4 z2a2 g2fg  | f2g2 f2e2 z2de d2{g}f2 e2d2 c2d2  | 
w:  ba *  *  *  *  *  ğı   |  *  *  *  *  *  *  ğı    | 
e3d dc{d}cB c6z2 d3e f2{g}fe  | e3d d2{f}ed d3c gfed c2d6  | 
w:  yâr  *  ta *  *  *  *  rab  rab   |  *  *  şim *  *  *  *  *  *  *  *  *  di   | 
d4 z4 d3c d2e2 d2e2 d2c2  | z2e2 d2d2 d3c B2cd c2{e}d2 c2B2  | 
w:  *  ey *  vay  *  vay    |  Yâr  *  gü li   | 
z2Bc B2c2 B4 A4 A2{B}AG dcBc  | d6z2 z2d2 d2f2 e2d2 c2d2  | 
w:  ba *  *  *  *  *  *  *  *  *  ğı   |  *  ğı    | 
e3d c2z2 d2e2 c2d2 {e}d2e2 c2f2  | \
w:  Gon *  ca  leb   | 
e3d d2{f}ed d3c e2ed d2c2 B2A2  | 
w:  *  *  şim *  *  *  *  *  *  *  *  di   | 
A12 z12  | |


